packages/kaspersky-hexa-ui-icons/src/iconsSVGs/28x20/FlagHr.svg

<svg width="28" height="20" viewBox="0 0 28 20" fill="none" xmlns="http://www.w3.org/2000/svg">
<g clip-path="url(#clip0_5138_963)">
<path d="M0 2C0 0.895431 0.895431 0 2 0H26C27.1046 0 28 0.895431 28 2V18C28 19.1046 27.1046 20 26 20H2C0.895431 20 0 19.1046 0 18V2Z" fill="white"/>
<mask id="mask0_5138_963" style="mask-type:luminance" maskUnits="userSpaceOnUse" x="0" y="0" width="28" height="20">
<rect width="28" height="20" rx="2" fill="white"/>
</mask>
<g mask="url(#mask0_5138_963)">
<path d="M26 19.5V20H2V19.5H26ZM27.5 18V2C27.5 1.17157 26.8284 0.5 26 0.5H2C1.17157 0.5 0.5 1.17157 0.5 2V18C0.5 18.8284 1.17157 19.5 2 19.5V20C0.895431 20 0 19.1046 0 18V2C2.57702e-07 0.895431 0.895431 0 2 0H26C27.1046 0 28 0.895431 28 2V18C28 19.1046 27.1046 20 26 20V19.5C26.8284 19.5 27.5 18.8284 27.5 18Z" fill="#F5F5F5"/>
<path fill-rule="evenodd" clip-rule="evenodd" d="M0 6.66667H28V0H0V6.66667Z" fill="#FF202D"/>
<path opacity="0.5" fill-rule="evenodd" clip-rule="evenodd" d="M10.6667 5.33334L11.3333 4.66667L12 5.33334V6.66667H10.6667V5.33334ZM13.3333 5.33334L14 4.66667L14.6667 5.33334V6.66667H13.3333V5.33334ZM16.6667 4.66667L16 5.33334V6.66667H17.3333V5.33334L16.6667 4.66667Z" fill="#1895DB"/>
<path opacity="0.5" fill-rule="evenodd" clip-rule="evenodd" d="M12.6667 4.66667L12 5.33334V6.66667H13.3333V5.33334L12.6667 4.66667ZM15.3333 4.66667L14.6667 5.33334V6.66667H16V5.33334L15.3333 4.66667Z" fill="#191F94"/>
<path fill-rule="evenodd" clip-rule="evenodd" d="M0 20H28V13.3333H0V20Z" fill="#2027AC"/>
<path fill-rule="evenodd" clip-rule="evenodd" d="M12 6.66667H11.3333L10.6667 8.00001H12V9.33334H10.6667V10.6667H12V12H10.6667V13.3333H12V14.6667H13.3333V13.3333H14.6667V14.6667H16V13.3333H17.3333V12H16V10.6667H17.3333V9.33334H16V8.00001H17.3333L16.6667 6.66667H16V8.00001H14.6667V6.66667H13.3333V8.00001H12V6.66667ZM13.3333 9.33334V8.00001H14.6667V9.33334H13.3333ZM13.3333 10.6667V9.33334H12V10.6667H13.3333ZM14.6667 10.6667H13.3333V12H12V13.3333H13.3333V12H14.6667V13.3333H16V12H14.6667V10.6667ZM14.6667 10.6667H16V9.33334H14.6667V10.6667Z" fill="url(#paint0_linear_5138_963)"/>
</g>
</g>
<defs>
<linearGradient id="paint0_linear_5138_963" x1="10.6667" y1="6.66667" x2="10.6667" y2="14.6667" gradientUnits="userSpaceOnUse">
<stop stop-color="#FF212E"/>
<stop offset="1" stop-color="#FD0D1B"/>
</linearGradient>
<clipPath id="clip0_5138_963">
<rect width="28" height="20" fill="white"/>
</clipPath>
</defs>
</svg>

<svg xmlns="http://www.w3.org/2000/svg" width="28" height="20" fill="none" viewBox="0 0 28 20"><g clip-path="url(#a)"><path fill="#fff" d="M0 2C0 .8954.8954 0 2 0h24c1.1046 0 2 .8954 2 2v16c0 1.1046-.8954 2-2 2H2c-1.1046 0-2-.8954-2-2z"/><mask id="b" width="28" height="20" x="0" y="0" maskUnits="userSpaceOnUse" style="mask-type:luminance"><rect width="28" height="20" fill="#fff" rx="2"/></mask><g mask="url(#b)"><path fill="#f5f5f5" d="M26 19.5v.5H2v-.5zm1.5-1.5V2c0-.8284-.6716-1.5-1.5-1.5H2C1.1716.5.5 1.1716.5 2v16c0 .8284.6716 1.5 1.5 1.5v.5c-1.1046 0-2-.8954-2-2V2C0 .8954.8954 0 2 0h24c1.1046 0 2 .8954 2 2v16c0 1.1046-.8954 2-2 2v-.5c.8284 0 1.5-.6716 1.5-1.5"/><path fill="#ff202d" fill-rule="evenodd" d="M0 6.6667h28V0H0z" clip-rule="evenodd"/><path fill="#1895db" fill-rule="evenodd" d="m10.6667 5.3333.6666-.6666.6667.6666v1.3334h-1.3333zm2.6666 0L14 4.6667l.6667.6666v1.3334h-1.3334zm3.3334-.6666L16 5.3333v1.3334h1.3333V5.3333z" clip-rule="evenodd"/><path fill="#191f94" fill-rule="evenodd" d="M12.6667 4.6667 12 5.3333v1.3334h1.3333V5.3333zm2.6666 0-.6666.6666v1.3334H16V5.3333z" clip-rule="evenodd"/><path fill="#2027ac" fill-rule="evenodd" d="M0 20h28v-6.6667H0z" clip-rule="evenodd"/><path fill="url(#c)" fill-rule="evenodd" d="M12 6.6667h-.6667L10.6667 8H12v1.3333h-1.3333v1.3334H12V12h-1.3333v1.3333H12v1.3334h1.3333v-1.3334h1.3334v1.3334H16v-1.3334h1.3333V12H16v-1.3333h1.3333V9.3333H16V8h1.3333l-.6666-1.3333H16V8h-1.3333V6.6667h-1.3334V8H12zm1.3333 2.6666V8h1.3334v1.3333zm0 1.3334V9.3333H12v1.3334zm1.3334 0h-1.3334V12H12v1.3333h1.3333V12h1.3334v1.3333H16V12h-1.3333zm0 0H16V9.3333h-1.3333z" clip-rule="evenodd"/></g></g><defs><linearGradient id="c" x1="11" x2="11" y1="7" y2="15" gradientUnits="userSpaceOnUse"><stop stop-color="#ff212e"/><stop offset="1" stop-color="#fd0d1b"/></linearGradient><clipPath id="a"><path fill="#fff" d="M0 0h28v20H0z"/></clipPath></defs></svg>
